assets/picture.svg

<svg height="360" viewBox="0 0 640 360" width="640" xmlns="http://www.w3.org/2000/svg"><g fill="none" fill-rule="evenodd"><path d="m0 0h640v360h-640z" fill="#3b5998"/><g fill="#fff"><g transform="translate(146 122)"><path d="m27.1027788 10.6992c-4.0776498 0-5.2593687 1.8144-5.2593687 5.804v6.62h10.8793295l-1.0873732 10.7048h-9.7919563v32.4704h-13.05327646v-32.4704h-8.79013364v-10.7048h8.79013364v-6.44c0-10.7896 4.35269126-16.5032 16.49929036-16.5032 2.6296843 0 5.7095092.18 7.6132119.4512v10.068"/><path d="m46.681894 46.252c0 6.44 2.3586406 10.6992 8.4295415 10.6992 5.3497166 0 8.0689493-3.8984 8.0689493-10.0624v-4.356c0-6.1688-2.7192327-10.068-8.0689493-10.068-6.0709009 0-8.4295415 4.2648-8.4295415 10.7048zm-13.0532765-2.9016c0-12.0632 5.7103088-21.1344 17.676212-21.1344 6.5266382 0 10.5131405 3.3576 12.4168433 7.5272v-6.62h12.5119885v43.1696h-12.5119885v-6.5248c-1.8133548 4.1704-5.8902051 7.4328-12.4168433 7.4328-11.9659032 0-17.676212-9.0664-17.676212-21.1296z"/><path d="m103.421191 22.216c5.073076 0 9.882304 1.0872 12.506392 2.9016l-2.899929 9.2512c-1.99405-.9968-5.254571-1.9944-8.700585-1.9944-7.0719238 0-10.1525483 4.0792-10.1525483 11.0656v2.536c0 6.9864 3.0806245 11.0656 10.1525483 11.0656 3.446014 0 6.706535-.9976 8.700585-1.9944l2.899929 9.2512c-2.624088 1.8144-7.433316 2.9024-12.506392 2.9024-15.3167716 0-22.2991472-8.2544-22.2991472-21.4952v-1.9952c0-13.24 6.9823756-21.4944 22.2991472-21.4944"/><path d="m130.703866 40.7192h15.77251v-1.0872c0-4.7168-1.903703-8.4352-7.614012-8.4352-5.895002 0-8.158498 3.7184-8.158498 9.5224m-13.053276 5.6232v-3.8088c0-12.2432 6.976779-20.3176 21.211774-20.3176 13.413869 0 19.304074 8.164 19.304074 20.1368v6.8912h-27.462572c.270245 5.8992 2.899929 8.5248 10.152549 8.5248 4.893179 0 10.0622-.9976 13.868806-2.6256l2.353844 8.9752c-3.440418 1.8144-10.513141 3.172-16.768736 3.172-16.493693 0-22.659739-8.2488-22.659739-20.948"/><path d="m193.518062 43.0744c0-6.0792-2.35864-10.6096-8.609438-10.6096-5.349716 0-8.249645 3.8088-8.249645 9.9728v4.536c0 6.1688 2.899929 9.9776 8.249645 9.9776 6.250798 0 8.609438-4.5352 8.609438-10.6144zm13.053277 2.992c0 12.0624-5.799857 21.1344-17.76656 21.1344-6.525839 0-11.059226-3.268-12.872581-7.4376v6.5296h-12.326495v-64.8504l13.053276-1.1776v28.8416c1.902903-3.808 6.070102-6.8904 12.1458-6.8904 11.966703 0 17.76656 9.0656 17.76656 21.1288z"/><path d="m240.830793 42.7136c0-5.7136-2.35944-10.2488-8.429542-10.2488-6.075698 0-8.429541 4.5352-8.429541 10.2488v3.9888c0 5.7136 2.353843 10.2488 8.429541 10.2488 6.070102 0 8.429542-4.5352 8.429542-10.2488zm-29.91236 3.0824v-2.1752c0-12.424 7.067127-21.4048 21.482818-21.4048 14.410095 0 21.482019 8.9808 21.482019 21.4048v2.1752c0 12.4288-7.071924 21.4048-21.482019 21.4048-14.415691 0-21.482818-8.976-21.482818-21.4048z"/><path d="m288.143523 42.7136c0-5.7136-2.35944-10.2488-8.429541-10.2488-6.075699 0-8.430341 4.5352-8.430341 10.2488v3.9888c0 5.7136 2.354642 10.2488 8.430341 10.2488 6.070101 0 8.429541-4.5352 8.429541-10.2488zm-29.912359 3.0824v-2.1752c0-12.424 7.067126-21.4048 21.482818-21.4048 14.410094 0 21.482018 8.9808 21.482018 21.4048v2.1752c0 12.4288-7.071924 21.4048-21.482018 21.4048-14.415692 0-21.482818-8.976-21.482818-21.4048z"/><path d="m319.137659 43.7104 12.872581-20.5872h13.868806l-13.508214 21.3144 14.049502 21.8552h-13.864009l-13.418666-21.128v21.128h-13.053277v-64.8448l13.053277-1.1832"/></g><text font-family="SFProText-Light, SF Pro Text" font-size="28" font-weight="300" letter-spacing="3.333333"><tspan x="151" y="231">CUSTOM AUDIENCES</tspan></text></g></g></svg>

<?xml version="1.0" encoding="UTF-8"?>
<svg width="640px" height="360px" viewBox="0 0 640 360" version="1.1" xmlns="http://www.w3.org/2000/svg" xmlns:xlink="http://www.w3.org/1999/xlink">
    <!-- Generator: Sketch 50.2 (55047) - http://www.bohemiancoding.com/sketch -->
    <title>facebook-audiences/picture</title>
    <desc>Created with Sketch.</desc>
    <defs></defs>
    <g id="facebook-audiences/picture" stroke="none" stroke-width="1" fill="none" fill-rule="evenodd">
        <rect id="Rectangle" fill="#3B5998" x="0" y="0" width="640" height="360"></rect>
        <g id="Facebook-logo" transform="translate(146.000000, 122.000000)" fill="#FFFFFF">
            <path d="M27.1027788,10.6992 C23.025129,10.6992 21.8434101,12.5136 21.8434101,16.5032 L21.8434101,23.1232 L32.7227396,23.1232 L31.6353664,33.828 L21.8434101,33.828 L21.8434101,66.2984 L8.79013364,66.2984 L8.79013364,33.828 L0,33.828 L0,23.1232 L8.79013364,23.1232 L8.79013364,16.6832 C8.79013364,5.8936 13.1428249,0.18 25.289424,0.18 C27.9191083,0.18 30.9989332,0.36 32.9026359,0.6312 L32.9026359,10.6992" id="Fill-14"></path>
            <path d="M46.681894,46.252 C46.681894,52.692 49.0405346,56.9512 55.1114355,56.9512 C60.4611521,56.9512 63.1803848,53.0528 63.1803848,46.8888 L63.1803848,42.5328 C63.1803848,36.364 60.4611521,32.4648 55.1114355,32.4648 C49.0405346,32.4648 46.681894,36.7296 46.681894,43.1696 L46.681894,46.252 Z M33.6286175,43.3504 C33.6286175,31.2872 39.3389263,22.216 51.3048295,22.216 C57.8314677,22.216 61.81797,25.5736 63.7216728,29.7432 L63.7216728,23.1232 L76.2336613,23.1232 L76.2336613,66.2928 L63.7216728,66.2928 L63.7216728,59.768 C61.908318,63.9384 57.8314677,67.2008 51.3048295,67.2008 C39.3389263,67.2008 33.6286175,58.1344 33.6286175,46.0712 L33.6286175,43.3504 Z" id="Fill-16"></path>
            <path d="M103.421191,22.216 C108.494267,22.216 113.303495,23.3032 115.927583,25.1176 L113.027654,34.3688 C111.033604,33.372 107.773083,32.3744 104.327069,32.3744 C97.2551452,32.3744 94.1745207,36.4536 94.1745207,43.44 L94.1745207,45.976 C94.1745207,52.9624 97.2551452,57.0416 104.327069,57.0416 C107.773083,57.0416 111.033604,56.044 113.027654,55.0472 L115.927583,64.2984 C113.303495,66.1128 108.494267,67.2008 103.421191,67.2008 C88.1044194,67.2008 81.1220438,58.9464 81.1220438,45.7056 L81.1220438,43.7104 C81.1220438,30.4704 88.1044194,22.216 103.421191,22.216" id="Fill-17"></path>
            <path d="M130.703866,40.7192 L146.476376,40.7192 L146.476376,39.632 C146.476376,34.9152 144.572673,31.1968 138.862364,31.1968 C132.967362,31.1968 130.703866,34.9152 130.703866,40.7192 M117.65059,46.3424 L117.65059,42.5336 C117.65059,30.2904 124.627369,22.216 138.862364,22.216 C152.276233,22.216 158.166438,30.38 158.166438,42.3528 L158.166438,49.244 L130.703866,49.244 C130.974111,55.1432 133.603795,57.7688 140.856415,57.7688 C145.749594,57.7688 150.918615,56.7712 154.725221,55.1432 L157.079065,64.1184 C153.638647,65.9328 146.565924,67.2904 140.310329,67.2904 C123.816636,67.2904 117.65059,59.0416 117.65059,46.3424" id="Fill-18"></path>
            <path d="M193.518062,43.0744 C193.518062,36.9952 191.159422,32.4648 184.908624,32.4648 C179.558908,32.4648 176.658979,36.2736 176.658979,42.4376 L176.658979,46.9736 C176.658979,53.1424 179.558908,56.9512 184.908624,56.9512 C191.159422,56.9512 193.518062,52.416 193.518062,46.3368 L193.518062,43.0744 Z M206.571339,46.0664 C206.571339,58.1288 200.771482,67.2008 188.804779,67.2008 C182.27894,67.2008 177.745553,63.9328 175.932198,59.7632 L175.932198,66.2928 L163.605703,66.2928 L163.605703,1.4424 L176.658979,0.2648 L176.658979,29.1064 C178.561882,25.2984 182.729081,22.216 188.804779,22.216 C200.771482,22.216 206.571339,31.2816 206.571339,43.3448 L206.571339,46.0664 Z" id="Fill-19"></path>
            <path d="M240.830793,42.7136 C240.830793,37 238.471353,32.4648 232.401251,32.4648 C226.325553,32.4648 223.97171,37 223.97171,42.7136 L223.97171,46.7024 C223.97171,52.416 226.325553,56.9512 232.401251,56.9512 C238.471353,56.9512 240.830793,52.416 240.830793,46.7024 L240.830793,42.7136 Z M210.918433,45.796 L210.918433,43.6208 C210.918433,31.1968 217.98556,22.216 232.401251,22.216 C246.811346,22.216 253.88327,31.1968 253.88327,43.6208 L253.88327,45.796 C253.88327,58.2248 246.811346,67.2008 232.401251,67.2008 C217.98556,67.2008 210.918433,58.2248 210.918433,45.796 Z" id="Fill-20"></path>
            <path d="M288.143523,42.7136 C288.143523,37 285.784083,32.4648 279.713982,32.4648 C273.638283,32.4648 271.283641,37 271.283641,42.7136 L271.283641,46.7024 C271.283641,52.416 273.638283,56.9512 279.713982,56.9512 C285.784083,56.9512 288.143523,52.416 288.143523,46.7024 L288.143523,42.7136 Z M258.231164,45.796 L258.231164,43.6208 C258.231164,31.1968 265.29829,22.216 279.713982,22.216 C294.124076,22.216 301.196,31.1968 301.196,43.6208 L301.196,45.796 C301.196,58.2248 294.124076,67.2008 279.713982,67.2008 C265.29829,67.2008 258.231164,58.2248 258.231164,45.796 Z" id="Fill-21"></path>
            <polyline id="Fill-22" points="319.137659 43.7104 332.01024 23.1232 345.879046 23.1232 332.370832 44.4376 346.420334 66.2928 332.556325 66.2928 319.137659 45.1648 319.137659 66.2928 306.084382 66.2928 306.084382 1.448 319.137659 0.2648"></polyline>
        </g>
        <text id="custom-audiences" font-family="SFProText-Light, SF Pro Text" font-size="28" font-weight="300" letter-spacing="3.333333" fill="#FFFFFF">
            <tspan x="151" y="231">CUSTOM AUDIENCES</tspan>
        </text>
    </g>
</svg>
